TMultiGraph/c4.svg

<svg xmlns="http://www.w3.org/2000/svg" viewBox="0 0 1200 800" preserveAspectRatio="none" width="1200" height="800">
 <path d="M0,0H1200V800H0Z" style="fill: white;"></path>
 <g>
  <g transform="translate(120,80)">
   <path d="M0,0H960V640H0Z" style="fill: white; stroke: black; stroke-width: 1;"></path>
   <svg x="0" y="0" overflow="hidden" width="960" height="640" viewBox="0 0 960 640">
    <g>
     <path d="M44,417l97,-97l97,-97l97,-97l97,-97h96l97,97l97,97l97,97l97,97" style="stroke: black; stroke-width: 1; fill: none;"></path>
     <path d="M40,417a4,4,0,1,0,8,0a4,4,0,1,0,-8,0zM137,320a4,4,0,1,0,8,0a4,4,0,1,0,-8,0zM234,223a4,4,0,1,0,8,0a4,4,0,1,0,-8,0zM331,126a4,4,0,1,0,8,0a4,4,0,1,0,-8,0zM428,29a4,4,0,1,0,8,0a4,4,0,1,0,-8,0zM524,29a4,4,0,1,0,8,0a4,4,0,1,0,-8,0zM621,126a4,4,0,1,0,8,0a4,4,0,1,0,-8,0zM718,223a4,4,0,1,0,8,0a4,4,0,1,0,-8,0zM815,320a4,4,0,1,0,8,0a4,4,0,1,0,-8,0zM912,417a4,4,0,1,0,8,0a4,4,0,1,0,-8,0z" style="stroke: red; fill: red;"></path>
    </g>
    <g>
     <path d="M44,514l97,-97l97,-97l97,-97l97,-97h96l97,97l97,97l97,97l97,97" style="stroke: black; stroke-width: 1; fill: none;"></path>
     <path d="M40,514a4,4,0,1,0,8,0a4,4,0,1,0,-8,0zM137,417a4,4,0,1,0,8,0a4,4,0,1,0,-8,0zM234,320a4,4,0,1,0,8,0a4,4,0,1,0,-8,0zM331,223a4,4,0,1,0,8,0a4,4,0,1,0,-8,0zM428,126a4,4,0,1,0,8,0a4,4,0,1,0,-8,0zM524,126a4,4,0,1,0,8,0a4,4,0,1,0,-8,0zM621,223a4,4,0,1,0,8,0a4,4,0,1,0,-8,0zM718,320a4,4,0,1,0,8,0a4,4,0,1,0,-8,0zM815,417a4,4,0,1,0,8,0a4,4,0,1,0,-8,0zM912,514a4,4,0,1,0,8,0a4,4,0,1,0,-8,0z" style="stroke: green; fill: green;"></path>
    </g>
    <g>
     <path d="M44,611l97,-97l97,-97l97,-97l97,-97h96l97,97l97,97l97,97l97,97" style="stroke: black; stroke-width: 1; fill: none;"></path>
     <path d="M40,611a4,4,0,1,0,8,0a4,4,0,1,0,-8,0zM137,514a4,4,0,1,0,8,0a4,4,0,1,0,-8,0zM234,417a4,4,0,1,0,8,0a4,4,0,1,0,-8,0zM331,320a4,4,0,1,0,8,0a4,4,0,1,0,-8,0zM428,223a4,4,0,1,0,8,0a4,4,0,1,0,-8,0zM524,223a4,4,0,1,0,8,0a4,4,0,1,0,-8,0zM621,320a4,4,0,1,0,8,0a4,4,0,1,0,-8,0zM718,417a4,4,0,1,0,8,0a4,4,0,1,0,-8,0zM815,514a4,4,0,1,0,8,0a4,4,0,1,0,-8,0zM912,611a4,4,0,1,0,8,0a4,4,0,1,0,-8,0z" style="stroke: blue; fill: blue;"></path>
    </g>
   </svg>
   <g>
    <g transform="translate(0,640)">
     <path d="M0,0h960M5,-12v12m19,-12v12m20,-24v24m19,-12v12m19,-12v12m20,-12v12m19,-12v12m20,-24v24m19,-12v12m19,-12v12m20,-12v12m19,-12v12m20,-24v24m19,-12v12m19,-12v12m20,-12v12m19,-12v12m20,-24v24m19,-12v12m19,-12v12m20,-12v12m19,-12v12m20,-24v24m19,-12v12m19,-12v12m20,-12v12m19,-12v12m19,-24v24m20,-12v12m19,-12v12m20,-12v12m19,-12v12m19,-24v24m20,-12v12m19,-12v12m20,-12v12m19,-12v12m19,-24v24m20,-12v12m19,-12v12m20,-12v12m19,-12v12m19,-24v24m20,-12v12m19,-12v12m20,-12v12m19,-12v12m19,-24v24m20,-12v12m19,-12v12" style="stroke: black; stroke-width: 1;"></path>
     <g font-family="Arial" font-size="28" space="preserve" fill="black" text-anchor="middle">
      <text dy=".8em" transform="translate(44,6)">
       0
      </text>
      <text dy=".8em" transform="translate(141,6)">
       1
      </text>
      <text dy=".8em" transform="translate(238,6)">
       2
      </text>
      <text dy=".8em" transform="translate(335,6)">
       3
      </text>
      <text dy=".8em" transform="translate(432,6)">
       4
      </text>
      <text dy=".8em" transform="translate(528,6)">
       5
      </text>
      <text dy=".8em" transform="translate(625,6)">
       6
      </text>
      <text dy=".8em" transform="translate(722,6)">
       7
      </text>
      <text dy=".8em" transform="translate(819,6)">
       8
      </text>
      <text dy=".8em" transform="translate(916,6)">
       9
      </text>
     </g>
     <g font-family="Arial" font-size="28" space="preserve" transform="translate(960,45)">
      <g transform="translate(-105,9)">
       <text fill="black" font-size="28">
        E
       </text>
       <text fill="black" font-size="17" transform="translate(17,5)">
        γ
       </text>
       <text fill="black" font-size="28" x="25">
        (GeV)
       </text>
      </g>
     </g>
    </g>
    <g>
     <path d="M0,0v640M18,630h-18m36,-19h-36m18,-19h-18m18,-20h-18m18,-19h-18m18,-20h-18m36,-19h-36m18,-19h-18m18,-20h-18m18,-19h-18m18,-20h-18m36,-19h-36m18,-19h-18m18,-20h-18m18,-19h-18m18,-20h-18m36,-19h-36m18,-19h-18m18,-20h-18m18,-19h-18m18,-20h-18m36,-19h-36m18,-19h-18m18,-20h-18m18,-19h-18m18,-20h-18m36,-19h-36m18,-19h-18m18,-20h-18m18,-19h-18m18,-20h-18m36,-19h-36m18,-19h-18" style="stroke: black; stroke-width: 1;"></path>
     <g font-family="Arial" font-size="28" space="preserve" fill="black" text-anchor="end">
      <text dy=".4em" transform="translate(-4,611)">
       -1
      </text>
      <text dy=".4em" transform="translate(-4,514)">
       0
      </text>
      <text dy=".4em" transform="translate(-4,417)">
       1
      </text>
      <text dy=".4em" transform="translate(-4,320)">
       2
      </text>
      <text dy=".4em" transform="translate(-4,223)">
       3
      </text>
      <text dy=".4em" transform="translate(-4,126)">
       4
      </text>
      <text dy=".4em" transform="translate(-4,29)">
       5
      </text>
     </g>
     <g font-family="Arial" font-size="28" space="preserve" transform="translate(-67,0)">
      <text fill="black" text-anchor="end" dy=".4em" transform=" rotate(270)">
       Coefficients
      </text>
     </g>
    </g>
   </g>
  </g>
 </g>
</svg>

<svg xmlns="http://www.w3.org/2000/svg" viewBox="0 0 1200 800" preserveAspectRatio="none" width="1200" height="800">
 <path d="M0,0H1200V800H0Z" style="fill: white;"></path>
 <g>
  <g transform="translate(120,80)">
   <path d="M0,0H960V640H0Z" style="fill: white; stroke: black; stroke-width: 1;"></path>
   <svg x="0" y="0" overflow="hidden" width="960" height="640" viewBox="0 0 960 640">
    <g>
     <path d="M44,417l97,-97l97,-97l97,-97l97,-97h96l97,97l97,97l97,97l97,97" style="stroke: black; stroke-width: 1; fill: none;"></path>
     <path d="M40,417a4,4,0,1,0,8,0a4,4,0,1,0,-8,0zM137,320a4,4,0,1,0,8,0a4,4,0,1,0,-8,0zM234,223a4,4,0,1,0,8,0a4,4,0,1,0,-8,0zM331,126a4,4,0,1,0,8,0a4,4,0,1,0,-8,0zM428,29a4,4,0,1,0,8,0a4,4,0,1,0,-8,0zM524,29a4,4,0,1,0,8,0a4,4,0,1,0,-8,0zM621,126a4,4,0,1,0,8,0a4,4,0,1,0,-8,0zM718,223a4,4,0,1,0,8,0a4,4,0,1,0,-8,0zM815,320a4,4,0,1,0,8,0a4,4,0,1,0,-8,0zM912,417a4,4,0,1,0,8,0a4,4,0,1,0,-8,0z" style="stroke: red; fill: red;"></path>
    </g>
    <g>
     <path d="M44,514l97,-97l97,-97l97,-97l97,-97h96l97,97l97,97l97,97l97,97" style="stroke: black; stroke-width: 1; fill: none;"></path>
     <path d="M40,514a4,4,0,1,0,8,0a4,4,0,1,0,-8,0zM137,417a4,4,0,1,0,8,0a4,4,0,1,0,-8,0zM234,320a4,4,0,1,0,8,0a4,4,0,1,0,-8,0zM331,223a4,4,0,1,0,8,0a4,4,0,1,0,-8,0zM428,126a4,4,0,1,0,8,0a4,4,0,1,0,-8,0zM524,126a4,4,0,1,0,8,0a4,4,0,1,0,-8,0zM621,223a4,4,0,1,0,8,0a4,4,0,1,0,-8,0zM718,320a4,4,0,1,0,8,0a4,4,0,1,0,-8,0zM815,417a4,4,0,1,0,8,0a4,4,0,1,0,-8,0zM912,514a4,4,0,1,0,8,0a4,4,0,1,0,-8,0z" style="stroke: green; fill: green;"></path>
    </g>
    <g>
     <path d="M44,611l97,-97l97,-97l97,-97l97,-97h96l97,97l97,97l97,97l97,97" style="stroke: black; stroke-width: 1; fill: none;"></path>
     <path d="M40,611a4,4,0,1,0,8,0a4,4,0,1,0,-8,0zM137,514a4,4,0,1,0,8,0a4,4,0,1,0,-8,0zM234,417a4,4,0,1,0,8,0a4,4,0,1,0,-8,0zM331,320a4,4,0,1,0,8,0a4,4,0,1,0,-8,0zM428,223a4,4,0,1,0,8,0a4,4,0,1,0,-8,0zM524,223a4,4,0,1,0,8,0a4,4,0,1,0,-8,0zM621,320a4,4,0,1,0,8,0a4,4,0,1,0,-8,0zM718,417a4,4,0,1,0,8,0a4,4,0,1,0,-8,0zM815,514a4,4,0,1,0,8,0a4,4,0,1,0,-8,0zM912,611a4,4,0,1,0,8,0a4,4,0,1,0,-8,0z" style="stroke: blue; fill: blue;"></path>
    </g>
   </svg>
   <g>
    <g transform="translate(0,640)">
     <path d="M0,0h960M5,-12V0M24,-12V0M44,-24V0M63,-12V0M82,-12V0M102,-12V0M121,-12V0M141,-24V0M160,-12V0M179,-12V0M199,-12V0M218,-12V0M238,-24V0M257,-12V0M276,-12V0M296,-12V0M315,-12V0M335,-24V0M354,-12V0M373,-12V0M393,-12V0M412,-12V0M432,-24V0M451,-12V0M470,-12V0M490,-12V0M509,-12V0M528,-24V0M548,-12V0M567,-12V0M587,-12V0M606,-12V0M625,-24V0M645,-12V0M664,-12V0M684,-12V0M703,-12V0M722,-24V0M742,-12V0M761,-12V0M781,-12V0M800,-12V0M819,-24V0M839,-12V0M858,-12V0M878,-12V0M897,-12V0M916,-24V0M936,-12V0M955,-12V0" style="stroke: black; stroke-width: 1;"></path>
     <g font-family="Arial" font-size="28" space="preserve" fill="black" text-anchor="middle">
      <text dy=".8em" transform="translate(44,6)">
       0
      </text>
      <text dy=".8em" transform="translate(141,6)">
       1
      </text>
      <text dy=".8em" transform="translate(238,6)">
       2
      </text>
      <text dy=".8em" transform="translate(335,6)">
       3
      </text>
      <text dy=".8em" transform="translate(432,6)">
       4
      </text>
      <text dy=".8em" transform="translate(528,6)">
       5
      </text>
      <text dy=".8em" transform="translate(625,6)">
       6
      </text>
      <text dy=".8em" transform="translate(722,6)">
       7
      </text>
      <text dy=".8em" transform="translate(819,6)">
       8
      </text>
      <text dy=".8em" transform="translate(916,6)">
       9
      </text>
     </g>
     <g font-family="Arial" font-size="28" space="preserve" transform="translate(960,45)">
      <g transform="translate(-105,9)">
       <text fill="black" font-size="28">
        E
       </text>
       <text fill="black" font-size="17" transform="translate(17,5)">
        γ
       </text>
       <text fill="black" font-size="28" x="25">
        (GeV)
       </text>
      </g>
     </g>
    </g>
    <g>
     <path d="M0,0v640M18,630H0M36,611H0M18,592H0M18,572H0M18,553H0M18,533H0M36,514H0M18,495H0M18,475H0M18,456H0M18,436H0M36,417H0M18,398H0M18,378H0M18,359H0M18,339H0M36,320H0M18,301H0M18,281H0M18,262H0M18,242H0M36,223H0M18,204H0M18,184H0M18,165H0M18,145H0M36,126H0M18,107H0M18,87H0M18,68H0M18,48H0M36,29H0M18,10H0" style="stroke: black; stroke-width: 1;"></path>
     <g font-family="Arial" font-size="28" space="preserve" fill="black" text-anchor="end">
      <text dy=".4em" transform="translate(-4,611)">
       -1
      </text>
      <text dy=".4em" transform="translate(-4,514)">
       0
      </text>
      <text dy=".4em" transform="translate(-4,417)">
       1
      </text>
      <text dy=".4em" transform="translate(-4,320)">
       2
      </text>
      <text dy=".4em" transform="translate(-4,223)">
       3
      </text>
      <text dy=".4em" transform="translate(-4,126)">
       4
      </text>
      <text dy=".4em" transform="translate(-4,29)">
       5
      </text>
     </g>
     <g font-family="Arial" font-size="28" space="preserve" transform="translate(-67,0)">
      <text fill="black" text-anchor="end" dy=".4em" transform=" rotate(270)">
       Coefficients
      </text>
     </g>
    </g>
   </g>
  </g>
 </g>
</svg>
